X:1
T:60 Lessons for 2 Guitars, Op.168 - Joseph Küffner (1776 - 1856)
T:Leçon No.52
T:60 Lessons for 2 Guitars, Op.168 "à l'usage des commençants"
T:Joseph Küffner (1776 - 1856)
%%score { ( 1 2 ) ( 3 4 ) }
L:1/8
Q:1/4=80
M:3/4
K:A
V:1 treble-8 nm="Classical Guitar"
V:2 treble-8 
V:3 treble-8 nm="Guitare classique"
V:4 treble-8 
V:1
 z6"^Polonaise" |"_" [Ac]3"_dol." (c/d/) B(B/c/) | Ac E2 z2 | [Bd]3 [GB][Ac][Bd] | %4
 [Ac]2!<(! [GB][GB][Ac][Bd]!<)! |"_" [ce]3 [Ac][Bd][ce] | [df] a2 .g/.f/ .e/.d/.c/.B/ | %7
 A/c/e- e/a/g/f/ e/d/c/B/ | [E,GB]4 [A,A]2 |:"_" [Bg]3 [Bg][Af][Ge] | [Ge]>[F^d] [Fd]2 z2 | %11
 [fa]3 [fa][eg][^df] | [^d^^f]>[eg] [eg]2 z2 |"_""^IV" !4!b2- b/.a/.g/.f/ .e/.^d/.c/.^B/ | %14
 .c.f/.^e/ .g/.f/.a/.g/ .b/.a/.g/.f/ | .b/.^a/.=a/.g/ .f/.e/.^d/.c/ .B/.A/.G/.F/ | E2 z2 z2 | %17
 z (!>!=f/>e/) e z z2 | z (!>!=f/>e/) e z z2 |"_poco rall." d' z d' z d' z | !>!d'3 .b.g.e | %21
 !>!=f3 .d.B.A | .G/.B/(=f/e/) .^d/.e/.g/.^f/ .e/.=d/.c/.B/ | %23
!>(! .A/.G/.F/.E/ .^D/.E/.F/.G/ .A/.^A/.B/.^B/!>)! |"^a tempo""_" [Ac]3 (c/d/) .B(B/c/) | %25
 Ac E2 z2 | [Bd]3 [GB][Ac][Bd] | [Ac]2!<(! [GB][GB][Ac]!<)![Bd] |"_" [ce]3 [Ac][Bd][ce] | %29
 [df] a2 .g/.f/ .e/.d/.c/.B/ | A/c/e- e/.a/.g/.f/ .e/.d/.B/.G/ | A/c/E/c/ A/c/E/c/ A/c/E/c/ | %32
 z/ .G/.B/.G/ .e/.B/.g/.f/ .e/.d/.c/.B/ |"_" A/c/E/c/ A/c/E/c/ A/c/E/c/ | %34
 z/ .G/.B/.G/ .e/.B/.g/.f/ .e/.d/.c/.B/ |"_" A/c/E/c/ A/c/E/c/ A/c/E/c/ | %36
 z/ .A/.d/.A/ .f/.^e/.g/.f/ .=e/.d/.c/.B/ | z/ A/c/e/ a/g/f/e/ e/d/c/B/ | %38
"_" A(3E/A/c/ e(3A/c/e/ a!arpeggio![E,Bdg] | %39
 !arpeggio![A,cea](3E/A/c/ e(3A/c/e/ a!arpeggio![E,Bdg] | !arpeggio![A,cea]2 [A,A]2 z2 :| %41
V:2
 x6 | A,3 z z2 | x6 | E,3 z z2 | E,6 | A,3 z z2 | D z2 z z2 | E,2 z2 z2 | x6 |: x6 | x6 | x6 | x6 | %13
 x6 | x6 | x6 | x6 | x6 | x6 | x6 | x6 | x6 | x6 | x6 | A,3 z z2 | x6 | E,3 z z2 | E,6 | A,3 z z2 | %29
 D z2 z z2 | E,2 z2 z2 | AE AE AE | E,4 x2 | AE AE AE | E,4 x2 | AE AE AE | D4 z2 | E,4 z2 | x6 | %39
 x6 | x6 :| %41
V:3
"_" z [EAc][EAc][EAc][EAc][EAc] | z [EAc][EAc][EAc] z [EGd] | %2
 z/!<(! E/A/c/ e/c/!<)!!>(!a/g/ f/e/d/!>)!c/ | z/ G/B/G/ z/ G/B/G/ A,/A/D/d/ | %4
 E,/E/E,/E/ E,/!<(!E/e/E/ E,/E/e/E/!<)! |"_" z/ E/A/c/ A,2 z2 | z/ A/d/f/ D2 z2 | %7
 z [EAc][EAc][EAc] z [EGd] | z/ E/G/E/ d/E/G/E/ [A,EAc]2 |:"_" E,/E/e/E/ E,/E/e/E/ E,/E/e/E/ | %10
 B,/B/B/B/ B,/(B/c/B/) F/B/^D/B/ | B,/B/B,/B/ B,/B/B,/B/ B,/B/B,/B/ | z/ E/G/B/ e/B/g/e/ B/e/G/B/ | %13
"_" !arpeggio![GBe]4 z2 | !arpeggio![A,Ace]2 z2 !arpeggio![A,Acf]2 | %15
 !arpeggio![B,GBe]2 z2 !arpeggio![B,ABf]2 | %16
 z/ G/B/e/ E,!arpeggio![E,^Ace]!arpeggio![E,Bde]!arpeggio![E,Ace] | %17
 !arpeggio![E,Bde]2 z !arpeggio![E,^Ace]!arpeggio![E,Bde]!arpeggio![E,Ace] | %18
 !arpeggio![E,Bde]2 z !arpeggio![E,^Ace]!arpeggio![E,Bde]!arpeggio![E,Ace] | %19
 !arpeggio![E,Bde]!arpeggio![E,^Ace]!arpeggio![E,Bde]!arpeggio![E,Ace]!arpeggio![E,Bde]!arpeggio![E,Ace] | %20
 !arpeggio!!>![E,Bde]3 z z2 | z6 | z6 | z6 |"_" z [EAc][EAc][EAc] z [EGd] | %25
 z/!<(! E/A/c/ e/c/!<)!!>(!a/g/ f/e/d/c/!>)! | z/ G/B/G/ z/ G/B/G/ A,/A/D/d/ | %27
 E,/E/E,/E/ E,/E/e/E/ E,/E/e/E/ |"_" z/ E/A/c/ A,2 z2 | z/ A/d/f/ D2 z2 | %30
 z [EAc][EAc][EAc] z [EGd] | !arpeggio![A,EAc]2 z [ca][ca][ca] | [Bg]2 z [E,Bd][E,Bd][E,Bd] | %33
"_" [A,Ac]2 z [ca][ca][ca] | [Bg]2 z [E,Bd][E,Bd][E,Bd] |"_" [A,Ac]2 z [A,ce][A,ce][A,ce] | %36
 [Ddf]2 z [DBd][DBd][DBd] | [E,Ac]2 z2 [E,GB]2 |"_" [A,A]2 z2 z !arpeggio![E,Gde] | %39
 [A,Ace]2 z2 z !arpeggio![E,Gde] | !arpeggio![A,Ace]2 [Acea]2 z2 :| %41
V:4
 A,6 | A,4 E,2 | A,6 | E,2 E2 A, x | x6 | A,2 x2 x2 | D2 x2 x2 | E,4 E,2 | E,4 x2 |: x6 | x6 | x6 | %12
 E,4 x2 | x6 | x6 | x6 | E,2 x2 x2 | x6 | x6 | x6 | x6 | x6 | x6 | x6 | A,4 E,2 | A,6 | %26
 E,2 E2 A, x | x6 | A,2 x2 x2 | D2 x2 x2 | E,4 E,2 | x6 | x6 | x6 | x6 | x6 | x6 | x6 | x6 | x6 | %40
 x6 :| %41

